;FLAVOR:Marlin
;TIME:651
;Filament used: 0.354695m
;Layer height: 0.2
;MINX:127.5
;MINY:125
;MINZ:0.2
;MAXX:172.5
;MAXY:170
;MAXZ:5
;Generated with Cura_SteamEngine 4.11.0
M140 S70
M105
M190 S70
M104 S210
M105
M109 S210
M82 ;absolute extrusion mode
M201 X500.00 Y500.00 Z100.00 E5000.00 ;Setup machine max acceleration
M203 X500.00 Y500.00 Z10.00 E50.00 ;Setup machine max feedrate
M204 P500.00 R1000.00 T500.00 ;Setup Print/Retract/Travel acceleration
M205 X8.00 Y8.00 Z0.40 E5.00 ;Setup Jerk
M220 S100 ;Reset Feedrate
M221 S100 ;Reset Flowrate

G28 ;Home

G92 E0 ;Reset Extruder
G1 Z2.0 F3000 ;Move Z Axis up
G1 X10.1 Y20 Z0.28 F5000.0 ;Move to start position
G1 X10.1 Y200.0 Z0.28 F1500.0 E15 ;Draw the first line
G1 X10.4 Y200.0 Z0.28 F5000.0 ;Move to side a little
G1 X10.4 Y20 Z0.28 F1500.0 E30 ;Draw the second line
G92 E0 ;Reset Extruder
G1 Z2.0 F3000 ;Move Z Axis up

G92 E0
G92 E0
G1 F2700 E-5
;LAYER_COUNT:25
;LAYER:0
M107
G0 F6000 X130.698 Y128.264 Z0.2
;TYPE:SKIRT
G1 F2700 E0
G1 F1200 X131.386 Y127.627 E0.03119
G1 X132.126 Y127.051 E0.06237
G1 X132.912 Y126.539 E0.09357
G1 X133.739 Y126.097 E0.12476
G1 X134.601 Y125.727 E0.15596
G1 X135.491 Y125.431 E0.18716
G1 X136.403 Y125.213 E0.21835
G1 X137.33 Y125.072 E0.24953
G1 X138.201 Y125.013 E0.27857
G1 X138.522 Y125.004 E0.28925
G1 X138.83 Y125 E0.29949
G1 X160.793 Y125 E1.02999
G1 X161.649 Y125.011 E1.05846
G1 X162.585 Y125.065 E1.08964
G1 X163.513 Y125.197 E1.12082
G1 X164.427 Y125.409 E1.15203
G1 X165.319 Y125.698 E1.18321
G1 X166.184 Y126.061 E1.21441
G1 X167.014 Y126.497 E1.2456
G1 X167.805 Y127.002 E1.27681
G1 X168.549 Y127.573 E1.308
G1 X169.242 Y128.205 E1.3392
G1 X169.879 Y128.893 E1.37038
G1 X170.454 Y129.634 E1.40158
G1 X170.965 Y130.42 E1.43276
G1 X171.407 Y131.248 E1.46398
G1 X171.776 Y132.11 E1.49516
G1 X172.071 Y133 E1.52635
G1 X172.289 Y133.912 E1.55754
G1 X172.429 Y134.84 E1.58875
G1 X172.487 Y135.701 E1.61745
G1 X172.496 Y136.021 E1.6281
G1 X172.5 Y136.33 E1.63838
G1 X172.499 Y158.4 E2.37243
G1 X172.49 Y159.127 E2.39661
G1 X172.439 Y160.064 E2.42782
G1 X172.307 Y160.992 E2.459
G1 X172.098 Y161.906 E2.49018
G1 X171.811 Y162.799 E2.52138
G1 X171.449 Y163.665 E2.5526
G1 X171.015 Y164.496 E2.58378
G1 X170.511 Y165.287 E2.61498
G1 X169.942 Y166.032 E2.64616
G1 X169.311 Y166.727 E2.67738
G1 X168.624 Y167.365 E2.70856
G1 X167.885 Y167.942 E2.73974
G1 X167.099 Y168.454 E2.77094
G1 X166.273 Y168.897 E2.80212
G1 X165.411 Y169.269 E2.83335
G1 X164.522 Y169.565 E2.86451
G1 X163.61 Y169.785 E2.89571
G1 X162.683 Y169.926 E2.9269
G1 X161.799 Y169.987 E2.95637
G1 X161.478 Y169.996 E2.96705
G1 X161.17 Y170 E2.9773
G1 X139.065 Y169.999 E3.71251
G1 X138.367 Y169.99 E3.73573
G1 X137.431 Y169.938 E3.76691
G1 X136.502 Y169.806 E3.79812
G1 X135.588 Y169.596 E3.82931
G1 X134.695 Y169.309 E3.86051
G1 X133.83 Y168.946 E3.89171
G1 X132.999 Y168.512 E3.92289
G1 X132.208 Y168.008 E3.95409
G1 X131.463 Y167.438 E3.98528
G1 X130.769 Y166.807 E4.01648
G1 X130.132 Y166.12 E4.04764
G1 X129.555 Y165.38 E4.07885
G1 X129.043 Y164.594 E4.11005
G1 X128.6 Y163.767 E4.14126
G1 X128.229 Y162.906 E4.17244
G1 X127.933 Y162.016 E4.20363
G1 X127.714 Y161.104 E4.23483
G1 X127.573 Y160.177 E4.26602
G1 X127.513 Y159.288 E4.29565
G1 X127.504 Y158.955 E4.30673
G1 X127.5 Y158.658 E4.31661
G1 X127.501 Y136.525 E5.05276
G1 X127.51 Y135.86 E5.07488
G1 X127.563 Y134.924 E5.10606
G1 X127.695 Y133.995 E5.13727
G1 X127.906 Y133.081 E5.16847
G1 X128.194 Y132.189 E5.19964
G1 X128.557 Y131.324 E5.23084
G1 X128.992 Y130.493 E5.26204
G1 X129.496 Y129.703 E5.29321
G1 X130.066 Y128.958 E5.32441
G1 X130.698 Y128.264 E5.35563
G0 F6000 X131.089 Y128.439
G1 F1200 X131.774 Y127.823 E5.38627
G1 X132.51 Y127.27 E5.41689
G1 X133.291 Y126.782 E5.44752
G1 X134.111 Y126.364 E5.47813
G1 X134.965 Y126.019 E5.50876
G1 X135.845 Y125.749 E5.53938
G1 X136.745 Y125.557 E5.56999
G1 X137.659 Y125.443 E5.60062
G1 X138.212 Y125.413 E5.61904
G1 X138.533 Y125.404 E5.62972
G1 X138.83 Y125.4 E5.6396
G1 X160.793 Y125.4 E6.3701
G1 X161.643 Y125.411 E6.39837
G1 X162.562 Y125.464 E6.42899
G1 X163.473 Y125.597 E6.45961
G1 X164.369 Y125.808 E6.49022
G1 X165.243 Y126.096 E6.52083
G1 X166.09 Y126.459 E6.55148
G1 X166.901 Y126.894 E6.58209
G1 X167.671 Y127.398 E6.6127
G1 X168.395 Y127.967 E6.64332
G1 X169.067 Y128.597 E6.67396
G1 X169.682 Y129.282 E6.70458
G1 X170.235 Y130.018 E6.7352
G1 X170.722 Y130.799 E6.76581
G1 X171.139 Y131.62 E6.79644
G1 X171.484 Y132.474 E6.82707
G1 X171.753 Y133.354 E6.85768
G1 X171.945 Y134.255 E6.88832
G1 X172.058 Y135.168 E6.91892
G1 X172.087 Y135.712 E6.93704
G1 X172.096 Y136.032 E6.94768
G1 X172.1 Y136.33 E6.9576
G1 X172.099 Y158.395 E7.69148
G1 X172.09 Y159.122 E7.71566
G1 X172.039 Y160.041 E7.74628
G1 X171.908 Y160.953 E7.77692
G1 X171.698 Y161.849 E7.80753
G1 X171.412 Y162.724 E7.83815
G1 X171.051 Y163.571 E7.86877
G1 X170.617 Y164.383 E7.89939
G1 X170.115 Y165.155 E7.93002
G1 X169.547 Y165.88 E7.96065
G1 X168.919 Y166.553 E7.99127
G1 X168.235 Y167.169 E8.02189
G1 X167.5 Y167.723 E8.0525
G1 X166.72 Y168.212 E8.08312
G1 X165.9 Y168.631 E8.11375
G1 X165.047 Y168.977 E8.14436
G1 X164.167 Y169.248 E8.17499
G1 X163.267 Y169.441 E8.2056
G1 X162.353 Y169.556 E8.23624
G1 X161.788 Y169.587 E8.25506
G1 X161.467 Y169.596 E8.26574
G1 X161.17 Y169.6 E8.27562
G1 X139.07 Y169.599 E9.01067
G1 X138.372 Y169.59 E9.03389
G1 X137.453 Y169.538 E9.0645
G1 X136.542 Y169.407 E9.09511
G1 X135.646 Y169.197 E9.12572
G1 X134.771 Y168.91 E9.15635
G1 X133.924 Y168.548 E9.18699
G1 X133.112 Y168.114 E9.21761
G1 X132.341 Y167.612 E9.24821
G1 X131.616 Y167.044 E9.27884
G1 X130.943 Y166.415 E9.30948
G1 X130.328 Y165.731 E9.34007
G1 X129.774 Y164.996 E9.37069
G1 X129.286 Y164.215 E9.40132
G1 X128.867 Y163.395 E9.43195
G1 X128.521 Y162.542 E9.46256
G1 X128.251 Y161.662 E9.49318
G1 X128.058 Y160.761 E9.52382
G1 X127.944 Y159.848 E9.55443
G1 X127.913 Y159.277 E9.57345
G1 X127.904 Y158.944 E9.58453
G1 X127.9 Y158.658 E9.59404
G1 X127.901 Y136.531 E10.32999
G1 X127.91 Y135.866 E10.35211
G1 X127.962 Y134.946 E10.38275
G1 X128.094 Y134.035 E10.41337
G1 X128.305 Y133.139 E10.44399
G1 X128.592 Y132.264 E10.47461
G1 X128.955 Y131.418 E10.50523
G1 X129.389 Y130.606 E10.53586
G1 X129.892 Y129.835 E10.56647
G1 X130.461 Y129.111 E10.5971
G1 X131.089 Y128.439 E10.62769
G0 F6000 X131.481 Y128.617
G1 F1200 X132.162 Y128.024 E10.65773
G1 X132.894 Y127.494 E10.68779
G1 X133.669 Y127.031 E10.71781
G1 X134.482 Y126.638 E10.74785
G1 X135.327 Y126.318 E10.7779
G1 X136.196 Y126.075 E10.80791
G1 X137.084 Y125.909 E10.83796
G1 X138.223 Y125.813 E10.87597
G1 X138.544 Y125.804 E10.88666
G1 X138.83 Y125.8 E10.89617
G1 X160.793 Y125.8 E11.62666
G1 X161.637 Y125.811 E11.65473
G1 X162.539 Y125.864 E11.68479
G1 X163.432 Y125.996 E11.71481
G1 X164.31 Y126.207 E11.74485
G1 X165.166 Y126.495 E11.77488
G1 X165.993 Y126.857 E11.80491
G1 X166.785 Y127.292 E11.83496
G1 X167.536 Y127.794 E11.86501
G1 X168.239 Y128.361 E11.89505
G1 X168.889 Y128.988 E11.92509
G1 X169.481 Y129.67 E11.95512
G1 X170.011 Y130.401 E11.98515
G1 X170.473 Y131.177 E12.01519
G1 X170.866 Y131.99 E12.04523
G1 X171.184 Y132.835 E12.07526
G1 X171.427 Y133.705 E12.1053
G1 X171.592 Y134.593 E12.13534
G1 X171.687 Y135.723 E12.17306
G1 X171.696 Y136.043 E12.1837
G1 X171.7 Y136.33 E12.19325
G1 X171.699 Y158.39 E12.92697
G1 X171.69 Y159.117 E12.95115
G1 X171.639 Y160.019 E12.9812
G1 X171.508 Y160.913 E13.01125
G1 X171.299 Y161.791 E13.04127
G1 X171.013 Y162.648 E13.07132
G1 X170.652 Y163.476 E13.10136
G1 X170.22 Y164.268 E13.13137
G1 X169.719 Y165.02 E13.16142
G1 X169.153 Y165.724 E13.19147
G1 X168.528 Y166.375 E13.22148
G1 X167.847 Y166.969 E13.25154
G1 X167.116 Y167.5 E13.28159
G1 X166.342 Y167.964 E13.3116
G1 X165.529 Y168.358 E13.34165
G1 X164.685 Y168.678 E13.37167
G1 X163.815 Y168.923 E13.40174
G1 X162.928 Y169.089 E13.43175
G1 X161.777 Y169.187 E13.47017
G1 X161.456 Y169.196 E13.48085
G1 X161.17 Y169.2 E13.49036
G1 X139.075 Y169.199 E14.22525
G1 X138.377 Y169.19 E14.24846
G1 X137.476 Y169.139 E14.27848
G1 X136.582 Y169.007 E14.30854
G1 X135.704 Y168.798 E14.33855
G1 X134.847 Y168.511 E14.36861
G1 X134.02 Y168.15 E14.39863
G1 X133.227 Y167.717 E14.42868
G1 X132.476 Y167.216 E14.4587
G1 X131.772 Y166.65 E14.48875
G1 X131.121 Y166.024 E14.51879
G1 X130.528 Y165.343 E14.54882
G1 X129.998 Y164.612 E14.57885
G1 X129.534 Y163.837 E14.6089
G1 X129.14 Y163.024 E14.63894
G1 X128.82 Y162.18 E14.66897
G1 X128.576 Y161.31 E14.69902
G1 X128.41 Y160.422 E14.72907
G1 X128.313 Y159.267 E14.76762
G1 X128.304 Y158.934 E14.7787
G1 X128.3 Y158.658 E14.78788
G1 X128.301 Y136.536 E15.52366
G1 X128.31 Y135.871 E15.54578
G1 X128.362 Y134.969 E15.57583
G1 X128.494 Y134.076 E15.60585
G1 X128.704 Y133.198 E15.63588
G1 X128.991 Y132.341 E15.66594
G1 X129.353 Y131.514 E15.69596
G1 X129.786 Y130.722 E15.72599
G1 X130.288 Y129.971 E15.75603
G1 X130.855 Y129.267 E15.7861
G1 X131.481 Y128.617 E15.81611
G1 F2700 E10.81611
;MESH:20_4.STL
G0 F6000 X138.088 Y135.589
G0 X138.914 Y136.414
G0 X139.365 Y147.794
G0 X139.462 Y148.96
G0 X139.686 Y150.111
G0 X140.035 Y151.231
G0 X140.506 Y152.304
G0 X141.092 Y153.32
G0 X141.786 Y154.263
G0 X142.581 Y155.127
G0 X143.465 Y155.896
G0 X144.429 Y156.566
G0 X145.46 Y157.122
G0 X146.546 Y157.562
G0 X147.458 Y157.821
G0 X150 Y158.301
;TYPE:WALL-INNER
G1 F2700 E15.81611
G1 F1200 X151.188 Y158.235 E15.85568
G1 X152.363 Y158.039 E15.89531
G1 X152.493 Y158.002 E15.8998
G1 X153.507 Y157.715 E15.93485
G1 X154.609 Y157.267 E15.97442
G1 X155.656 Y156.702 E16.01399
G1 X156.634 Y156.023 E16.05359
G1 X157.531 Y155.242 E16.09314
G1 X158.338 Y154.366 E16.13276
G1 X159.042 Y153.408 E16.1723
G1 X159.637 Y152.377 E16.21189
G1 X160.115 Y151.287 E16.25148
G1 X160.47 Y150.151 E16.29106
G1 X160.503 Y149.982 E16.29679
G1 X160.698 Y148.983 E16.33065
G1 X160.796 Y147.798 E16.37019
G1 X160.764 Y146.608 E16.40979
G1 X160.601 Y145.43 E16.44934
G1 X160.503 Y145.043 E16.46262
G1 X160.308 Y144.275 E16.48897
G1 X159.891 Y143.161 E16.52854
G1 X159.353 Y142.1 E16.5681
G1 X158.703 Y141.103 E16.60769
G1 X157.945 Y140.184 E16.64731
G1 X157.076 Y139.341 E16.68758
G1 X156.154 Y138.624 E16.72643
G1 X155.141 Y138.001 E16.76598
G1 X154.064 Y137.493 E16.80559
G1 X152.939 Y137.107 E16.84514
G1 X152.45 Y136.997 E16.86182
G1 X151.778 Y136.846 E16.88472
G1 X150.592 Y136.716 E16.92441
G1 X149.988 Y136.7 E16.9445
G1 X149.374 Y136.718 E16.96493
G1 X148.222 Y136.846 E17.00348
G1 X147.55 Y136.997 E17.02639
G1 X147.061 Y137.107 E17.04306
G1 X145.936 Y137.493 E17.08262
G1 X144.859 Y138.001 E17.12223
G1 X143.845 Y138.625 E17.16183
G1 X142.89 Y139.37 E17.20211
G1 X142.054 Y140.185 E17.24095
G1 X141.297 Y141.103 E17.28052
G1 X140.647 Y142.1 E17.32011
G1 X140.109 Y143.161 E17.35967
G1 X139.692 Y144.275 E17.39923
G1 X139.497 Y145.043 E17.42559
G1 X139.399 Y145.43 E17.43887
G1 X139.236 Y146.608 E17.47842
G1 X139.204 Y147.798 E17.51801
G1 X139.302 Y148.983 E17.55756
G1 X139.497 Y149.982 E17.59142
G1 X139.53 Y150.151 E17.59714
G1 X139.885 Y151.287 E17.63673
G1 X140.363 Y152.377 E17.67632
G1 X140.958 Y153.408 E17.71591
G1 X141.662 Y154.366 E17.75545
G1 X142.469 Y155.242 E17.79506
G1 X143.366 Y156.023 E17.83462
G1 X144.344 Y156.702 E17.87422
G1 X145.391 Y157.267 E17.91379
G1 X146.493 Y157.715 E17.95336
G1 X147.507 Y158.002 E17.98841
G1 X147.637 Y158.039 E17.9929
G1 X148.812 Y158.235 E18.03252
G1 X150 Y158.301 E18.0721
G0 F6000 X150 Y157.9
;TYPE:WALL-OUTER
G1 F1200 X151.144 Y157.837 E18.11021
G1 X152.275 Y157.648 E18.14834
G1 X153.377 Y157.336 E18.18644
G1 X154.438 Y156.905 E18.22453
G1 X155.446 Y156.361 E18.26262
G1 X156.388 Y155.707 E18.30077
G1 X157.252 Y154.955 E18.33886
G1 X158.029 Y154.111 E18.37702
G1 X158.707 Y153.189 E18.41508
G1 X159.28 Y152.196 E18.45321
G1 X159.74 Y151.147 E18.49131
G1 X160.082 Y150.053 E18.52943
G1 X160.301 Y148.928 E18.56755
G1 X160.396 Y147.787 E18.60564
G1 X160.365 Y146.641 E18.64377
G1 X160.208 Y145.507 E18.68184
G1 X159.926 Y144.395 E18.72
G1 X159.524 Y143.322 E18.75811
G1 X159.006 Y142.3 E18.79622
G1 X158.38 Y141.34 E18.83434
G1 X157.651 Y140.456 E18.87245
G1 X156.813 Y139.643 E18.91128
G1 X155.926 Y138.953 E18.94866
G1 X154.95 Y138.353 E18.98676
G1 X153.913 Y137.864 E19.0249
G1 X152.83 Y137.492 E19.06298
G1 X151.712 Y137.241 E19.10109
G1 X150.565 Y137.115 E19.13947
G1 X149.989 Y137.1 E19.15864
G1 X149.402 Y137.117 E19.17817
G1 X148.288 Y137.241 E19.21545
G1 X147.17 Y137.492 E19.25356
G1 X146.087 Y137.864 E19.29164
G1 X145.05 Y138.353 E19.32978
G1 X144.074 Y138.954 E19.3679
G1 X143.153 Y139.672 E19.40674
G1 X142.349 Y140.456 E19.44409
G1 X141.62 Y141.34 E19.4822
G1 X140.994 Y142.3 E19.52032
G1 X140.476 Y143.322 E19.55843
G1 X140.074 Y144.395 E19.59654
G1 X139.792 Y145.507 E19.6347
G1 X139.635 Y146.641 E19.67277
G1 X139.604 Y147.787 E19.7109
G1 X139.699 Y148.928 E19.74898
G1 X139.918 Y150.053 E19.7871
G1 X140.26 Y151.147 E19.82523
G1 X140.72 Y152.196 E19.86332
G1 X141.293 Y153.189 E19.90146
G1 X141.971 Y154.111 E19.93952
G1 X142.748 Y154.955 E19.97768
G1 X143.612 Y155.707 E20.01577
G1 X144.554 Y156.361 E20.05392
G1 X145.562 Y156.905 E20.09201
G1 X146.623 Y157.336 E20.1301
G1 X147.725 Y157.648 E20.1682
G1 X148.856 Y157.837 E20.20633
G1 X150 Y157.9 E20.24444
G0 F6000 X150 Y158.34
G0 X160.9 Y158.4
;TYPE:WALL-INNER
G1 F1200 X152.499 Y158.4 E20.52386
G1 X152.363 Y158.4 E20.52817
G1 X151.188 Y158.4 E20.55389
G1 X150 Y158.4 E20.56696
G1 X148.812 Y158.4 E20.58003
G1 X147.637 Y158.4 E20.60574
G1 X147.501 Y158.4 E20.61005
G1 X139.1 Y158.4 E20.88947
G1 X139.1 Y150.001 E21.16883
G1 X139.1 Y148.983 E21.19437
G1 X139.1 Y147.798 E21.20946
G1 X139.1 Y146.608 E21.22136
G1 X139.1 Y145.43 E21.24268
G1 X139.1 Y145.03 E21.25433
G1 X139.1 Y136.6 E21.53472
G1 X147.533 Y136.6 E21.8152
G1 X148.222 Y136.6 E21.83375
G1 X149.374 Y136.6 E21.8512
G1 X149.988 Y136.6 E21.85678
G1 X150.592 Y136.6 E21.86222
G1 X151.778 Y136.6 E21.88009
G1 X152.467 Y136.6 E21.89864
G1 X160.9 Y136.6 E22.17912
G1 X160.9 Y145.03 E22.4595
G1 X160.9 Y145.43 E22.47115
G1 X160.9 Y146.608 E22.49247
G1 X160.9 Y147.798 E22.50438
G1 X160.9 Y148.983 E22.51947
G1 X160.9 Y150.001 E22.54501
G1 X160.9 Y158.4 E22.82436
G0 F6000 X161.3 Y158.8
;TYPE:WALL-OUTER
G1 F1200 X138.7 Y158.8 E23.57604
G1 X138.7 Y136.2 E24.32772
G1 X161.3 Y136.2 E25.0794
G1 X161.3 Y158.8 E25.83108
G0 F6000 X161.03 Y158.53
G0 X160.79 Y158.01
G0 X160.51 Y158.01
;TYPE:SKIN
G1 F1200 X153.816 Y158.01 E26.05372
G1 X154.775 Y157.62 E26.08816
G1 X155.861 Y157.035 E26.12918
G1 X156.874 Y156.331 E26.17021
G1 X157.804 Y155.522 E26.21121
G1 X158.64 Y154.614 E26.25226
G1 X159.369 Y153.622 E26.29321
G1 X159.986 Y152.553 E26.33426
G1 X160.481 Y151.424 E26.37526
G1 X160.51 Y151.331 E26.3785
G1 X160.51 Y158.01 E26.60065
G0 F6000 X160.79 Y158.01
G0 X153.684 Y158.22
G0 X153.614 Y157.866
G0 X155.175 Y157.086
G0 X155.478 Y157.649
G1 F1200 X155.952 Y157.649 E26.61641
G1 X155.786 Y157.483 E26.62422
G0 F6000 X155.952 Y157.649
G1 F1200 X156.518 Y157.649 E26.64304
G1 X156.145 Y157.276 E26.66059
G1 X156.478 Y157.044 E26.67409
G1 X157.083 Y157.649 E26.70254
G1 X157.649 Y157.649 E26.72137
G1 X156.812 Y156.812 E26.76074
G1 X157.094 Y156.614 E26.7722
G1 X157.141 Y156.575 E26.77423
G1 X158.215 Y157.649 E26.82475
G1 X158.78 Y157.649 E26.84354
G1 X157.443 Y156.312 E26.90643
G1 X157.747 Y156.049 E26.9198
G1 X159.346 Y157.649 E26.99504
G1 X159.912 Y157.649 E27.01386
G1 X158.049 Y155.786 E27.10149
G1 X158.055 Y155.781 E27.10175
G1 X158.32 Y155.492 E27.11479
G1 X160.149 Y157.32 E27.2008
G1 X160.149 Y156.754 E27.21962
G1 X158.592 Y155.197 E27.29286
G1 X158.862 Y154.903 E27.30614
G1 X160.149 Y156.189 E27.36665
G1 X160.149 Y155.623 E27.38547
G1 X159.108 Y154.583 E27.43442
G1 X159.348 Y154.257 E27.44788
G1 X160.149 Y155.057 E27.48553
G1 X160.149 Y154.492 E27.50433
G1 X159.587 Y153.93 E27.53076
G1 X159.67 Y153.819 E27.53537
G1 X159.806 Y153.583 E27.54443
G1 X160.149 Y153.926 E27.56056
G1 X160.149 Y153.36 E27.57939
G1 X160.012 Y153.224 E27.58581
G1 X160.149 Y152.988 E27.59489
G0 F6000 X159.597 Y152.668
G0 X160.346 Y151.152
G0 X160.484 Y151.15
;TYPE:SKIN
G1 F1200 X160.362 Y151.028 E27.59776
G0 F6000 X160.429 Y150.813
G1 F1200 X160.739 Y151.122 E27.60503
